X:1
T:[ID 1-129b]
T:[ID 1-129b]
T:Bezeichnung standardisiert: Golswin; Go\sswin
T:Urheber unbekannt Datum in der hier transkribierten schriftlichen Quelle: vermutlich vor 1767
C:Urheber unbekannt
C:Datum in der hier transkribierten schriftlichen Quelle: vermutlich vor 1767
L:1/8
M:2/4
K:D
V:1 treble 
V:1
 ff/g/ ad | cdeA | BB/c/ Ag | f/e/d/c/ d2 :: ff/g/ ea | ^gb a2 | ff/g/ ea | ^g/a/b/g/ a2 | %8
 ff/g/ ad | cd eA | BB/c/ Ag | f/e/d/c/{c} d2 :| %12

